X: 2
T: Brendan Tonra's
R: jig
M: 6/8
L: 1/8
K: Dmaj
|: E |F^EF AF=E | EDB A2 D | F^EF G2 G | ABF AFE |
F^EF AF=E | EDB ABD | F^EF G=E/F/G | BAF D2 :|
|: e |f2 d dcd | edc Bcd | fdd dcd | ABF Ade |
f2 d dcd | edc BB/c/d | f/g/af g>ec | Adc d2 :|


Tune 451	Setting 23487

